svg/furkot/freepik/offline-map.svg

<svg viewBox="0 0 512 512" xmlns="http://www.w3.org/2000/svg"><path d="m245.473 321.387c3.257 2.865 7.324 4.3 11.394 4.3s8.138-1.435 11.393-4.3c4.126-3.634 101.001-89.982 101.001-179.534 0-61.997-50.418-112.435-112.393-112.435-61.976 0-112.396 50.438-112.396 112.435-.003 89.552 96.875 175.9 101.001 179.534zm11.394-208.911c16.09 0 29.137 13.149 29.137 29.377 0 16.227-13.047 29.378-29.137 29.378-16.096 0-29.141-13.153-29.141-29.378 0-16.228 13.045-29.377 29.141-29.377z"/><path d="m472.834 321.337-13.02-45.625c-2.114-7.405-8.879-12.509-16.576-12.509h-92.919c-3.359 4.993-6.904 10.006-10.652 15.047-26.045 34.992-52.521 58.662-55.457 61.249-7.559 6.656-17.268 10.322-27.343 10.322-10.069 0-19.778-3.662-27.347-10.325-2.932-2.584-29.413-26.258-55.456-61.246-3.748-5.041-7.292-10.055-10.651-15.047h-92.921c-7.698 0-14.463 5.104-16.576 12.509l-15.518 54.376 346.861 63.533zm40.233 141.004-33.262-116.577-165.037 138.548h181.725c5.409 0 10.503-2.537 13.76-6.855 3.257-4.319 4.297-9.916 2.814-15.116zm-428.668-99.291-52.653-9.645-31.084 108.936c-1.482 5.2-.442 10.797 2.816 15.115 3.258 4.317 8.352 6.854 13.76 6.854h67.161zm24.135 4.422v116.838h168.695l84.037-70.547z"/></svg>

<svg xmlns="http://www.w3.org/2000/svg" viewBox="0 0 512 512"><path d="M245.473 321.387C248.73 324.252 252.797 325.687 256.867 325.687 260.937 325.687 265.005 324.252 268.26 321.387 272.386 317.753 369.261 231.405 369.261 141.853 369.261 79.856 318.843 29.418 256.868 29.418 194.892 29.418 144.472 79.856 144.472 141.853 144.469 231.405 241.347 317.753 245.473 321.387ZM256.867 112.476C272.957 112.476 286.004 125.625 286.004 141.853 286.004 158.08 272.957 171.231 256.867 171.231 240.771 171.231 227.726 158.078 227.726 141.853 227.726 125.625 240.771 112.476 256.867 112.476Z"/><path d="M472.834 321.337L459.814 275.712C457.7 268.307 450.935 263.203 443.238 263.203H350.319C346.96 268.196 343.415 273.209 339.667 278.25 313.622 313.242 287.146 336.912 284.21 339.499 276.651 346.155 266.942 349.821 256.867 349.821 246.798 349.821 237.089 346.159 229.52 339.496 226.588 336.912 200.107 313.238 174.064 278.25 170.316 273.209 166.772 268.195 163.413 263.203H70.492C62.794 263.203 56.029 268.307 53.916 275.712L38.398 330.088 385.259 393.621 472.834 321.337ZM513.067 462.341L479.805 345.764 314.768 484.312H496.493C501.902 484.312 506.996 481.775 510.253 477.457 513.51 473.138 514.55 467.541 513.067 462.341ZM84.399 363.05L31.746 353.405 0.662 462.341C-0.82 467.541 0.22 473.138 3.478 477.456 6.736 481.773 11.83 484.31 17.238 484.31H84.399V363.05ZM108.534 367.472L108.534 484.31 277.229 484.31 361.266 413.763Z"/></svg>
